!!!COM: Bach, Johann Sebastian
!!!CDT: 1685/3//-1750/7/28/
!!!OTL@@DE: Aus meines Herzens Grunde
!!!OTL@EN:  From the depths of my heart
!!!AGN: 4-Part Chorale
!!!SCT: BH 001
!!!SCT: BWV 269
**harm	**root	**kern	**kern	**kern	**kern
!	!	!bass	!tenor	!alto	!sprno
*	*Iorgan	*Iorgan	*Iorgan	*Iorgan	*Iorgan
*	*	*clefF4	*clefF4	*clefG2	*clefG2
*k[f#]	*k[f#]	*k[f#]	*k[f#]	*k[f#]	*k[f#]
*G:	*G:	*G:	*G:	*G:	*G:
*M3/4	*M3/4	*M3/4	*M3/4	*M3/4	*M3/4
*MM60	*MM60	*MM60	*MM60	*MM60	*MM60
*>[A,A,B]	*>[A,A,B]	*>[A,A,B]	*>[A,A,B]	*>[A,A,B]	*>[A,A,B]
*>A	*>A	*>A	*>A	*>A	*>A
I	4GG	4GG	4B	4d	4g
=1	=1	=1	=1	=1	=1
I	4GG	4G	4B	4d	2g
IVb[vi]	4EE	4E	8c	4e	.
.	.	.	8B	.	.
Vb	4DD	4F#	4A	4d	4dd
=2	=2	=2	=2	=2	=2
I	4GG	4G	4G	2d	4.b
V	4DD	4D	4F#	.	.
.	.	.	.	.	8a
vi	4EE	4E	4G	4B	4g
=3	=3	=3	=3	=3	=3
IV	4CC	4C	8c	8e	4.g
.	.	.	8B	8d	.
IV7d	8CC	8BB	4c	8e	.
viiob	8FF#	8AA	.	8f#	8a
I	4GG	4GG	4d	4g	4b
=4	=4	=4	=4	=4	=4
V;	2DD;	2D;	2d;	2f#;	2a;
I	4GG	4GG	4d	4g	4b
=5	=5	=5	=5	=5	=5
Vb	4DD	4FF#	4A	4d	2dd
vi7b	4EE	4GG	4B	4e	.
viiob	4FF#	4AA	4c	4f#	4cc
=6	=6	=6	=6	=6	=6
Ib	4GG	4BB	4d	2g	4b
ii7b	4AA	4C	4e	.	2a
V7	4DD	4D	8d	4f#	.
.	.	.	8c	.	.
=7	=7	=7	=7	=7	=7
I;	2GG;	2GG;	2B;	2d;	2g;
=:|!	=:|!	=:|!	=:|!	=:|!	=:|!
*>B	*>B	*>B	*>B	*>B	*>B
I	4GG	4GG	4d	[4g	4b
=8	=8	=8	=8	=8	=8
I	4GG	4GG	4d	8g]	4b
.	.	.	.	8f#	.
ii	4AA	4AA	4c	8e	4cc
.	.	.	.	8f#	.
Ib	4GG	4BB	8B	[4g	4dd
.	.	.	8A	.	.
=9	=9	=9	=9	=9	=9
Ib	4.GG	4.BB	8B	8g]	4.dd
.	.	.	8c	8a	.
.	.	.	4d	8g	.
V7c	8DD	8AA	.	8f#	8cc
I	4GG	4GG	4d	4g	4b
!!linebreak: 2
=10	=10	=10	=10	=10	=10
V;	2DD;	2D;	2d;	2f#;	2a;
vi	4EE	[4E	4B	4e	4g
=11	=11	=11	=11	=11	=11
vi	4EE	4E]	4G	4e	2b
iiib[Ic]	4BB	4D	4B	8f#	.
.	.	.	.	8g	.
iib	4AA	4C	4e	4a	4cc
=12	=12	=12	=12	=12	=12
Ib	2GG	4.BB	2d	4a	2dd
.	.	.	.	4.g	.
.	.	8C	.	.	.
V7	4DD	4D	4d	.	4cc
.	.	.	.	8f#	.
=13	=13	=13	=13	=13	=13
I	4GG	8GG	2.d	2g	2.b
.	.	8AA	.	.	.
Ib	4GG	4BB	.	.	.
V7/IV	4GG	4GG	.	4fn	.
=14	=14	=14	=14	=14	=14
IV;	2CC;	2C;	2c;	2e;	2g;
I	4GG	4GG	4d	4g	4b
=15	=15	=15	=15	=15	=15
Vb	4DD	4FF#	8d	4.a	2dd
.	.	.	8c	.	.
I	4GG	4GG	4B	.	.
.	.	.	.	8g	.
viiob	4FF#	4AA	4c	4f#	4cc
=16	=16	=16	=16	=16	=16
I	2GG	4BB	2d	2g	2b
.	.	4GG	.	.	.
V	4DD	4D	8d	[4f#	4a
.	.	.	8c	.	.
=17	=17	=17	=17	=17	=17
vi	4EE	8E	4B	8f#]	4.g
.	.	8D	.	8e	.
IV	8CC	8C	4c	8e	.
viio7d	8FF#	8BB	.	8f#	8a
I	4GG	8AA	4d	4g	4b
.	.	8GG	.	.	.
=18	=18	=18	=18	=18	=18
V;	2DD;	2D;	2d;	2f#;	2a;
I	4GG	[4G	4d	4g	4b
=19	=19	=19	=19	=19	=19
Vb	2DD	4G]	2d	2a	2dd
.	.	4F#	.	.	.
IVb	4CC	[4E	4e	8g	4cc
.	.	.	.	8f#	.
=20	=20	=20	=20	=20	=20
vi	4EE	8E]	2e	2g	4b
.	.	8D	.	.	.
ii7b	4AA	4C	.	.	2a
V7	4DD	4D	8d	4f#	.
.	.	.	8c	.	.
=21	=21	=21	=21	=21	=21
I;	2GG;	2GG;	2B;	2d;	2g;
==	==	==	==	==	==
*-	*-	*-	*-	*-	*-
!!!ONB1: Text by Georg Niege; 16th Century secular melody, first appears 
!!!YEC: Copyright 2001 by Craig Stuart Sapp
!!!license: GNU General Public License (http://www.gnu.org/copyleft/gpl.html)
!!!SMA: 371 Bach Chorales, edited by Ludwig Erk, C.F. Peters
!!!PDT: 1850, 1865
!!!ONB: Harmony and Root analysis done manually by Craig Sapp
!! Beat 2 of measure 1 chord could also be IVb (with root on C)
